X:1
T:Title
%%score { ( 1 3 ) | ( 2 4 ) }
L:1/8
M:3/4
K:Eb
V:1 treble nm="Grand Piano"
V:3 treble 
V:2 bass 
V:4 bass 
V:1
 z2 z2[Q:1/4=94] EG | [GB]3 G eB | c2 B2 cB | GE G2 [DF]2 |[M:2/4] E4 |[M:1/4] EG | %6
[M:3/4] [GB]3 G eB | c2 B2 cB | GE G2 [DF]2 |[M:2/4] E4 |[M:1/4] ed |[M:3/4] [Ge]4 z2 | B2 G2 ed | %13
 [Ge]4 z2 |[M:2/4] [B,DB]4 |[M:1/4] [G,E][B,EG] |[M:3/4] [EGB]3 [B,EB] [Ec][CEe] | [GB]2 [EG]2 z2 | %18
 GE G2 [DF]2 |[M:2/4] E4 |] %20
V:2
 z2 z2 [E,G,][E,B,E] | [E,E]3 [E,B,E] [E,G,E][E,G,E] | [E,A,E]2 [E,G,E]2 [A,E][G,B,E] | %3
 [E,B,E][G,B,] [B,E]2 [B,,A,]2 |[M:2/4] [E,G,]4 |[M:1/4] [E,G,][E,B,E] | %6
[M:3/4] [E,E]3 [E,B,E] [E,G,E][E,G,E] | [E,A,E]2 [E,G,E]2 [A,E][G,B,E] | %8
 [E,B,E][G,B,] [B,E]2 [B,,A,]2 |[M:2/4] [E,G,]4 |[M:1/4][K:treble] GF | %11
[M:3/4][K:bass] [E,B,]F, G,[G,E] [A,E][A,CE] | [G,B,E]2 [E,B,E]2[K:treble] GF | %13
 [E,B,]F, G,[E,G,E] [C,A,][F,=A,] |[M:2/4] B,,4 |[M:1/4] E,E, |[M:3/4] z2 z2 A,2 | %17
 E,E, E,E, [A,E][G,B,E] | [E,B,E][G,B,] [B,E]2 [B,,A,]2 |[M:2/4] [E,G,]4 |] %20
V:3
 x6 | x6 | x6 | x6 |[M:2/4] x4 |[M:1/4] x2 |[M:3/4] x6 | x6 | x6 |[M:2/4] x4 |[M:1/4] x2 | %11
[M:3/4] z B, B,B ce | x6 | z B, B,B [Ec][Ec] |[M:2/4] x4 |[M:1/4] x2 |[M:3/4] x6 | B,B, B,B, cB | %18
 x6 |[M:2/4] x4 |] %20
V:4
 x6 | x6 | x6 | x6 |[M:2/4] x4 |[M:1/4] x2 |[M:3/4] x6 | x6 | x6 |[M:2/4] x4 | %10
[M:1/4][K:treble] x2 |[M:3/4][K:bass] x6 | x4[K:treble] x2 | x6 |[M:2/4] x4 |[M:1/4] x2 | %16
[M:3/4] E,3 G, z A,, | x6 | x6 |[M:2/4] x4 |] %20

